Numix-Light/16/status/indicator-keyboard-Fi-3.svg

<?xml version="1.0" encoding="UTF-8" standalone="no"?>
<svg
   xmlns:dc="http://purl.org/dc/elements/1.1/"
   xmlns:cc="http://creativecommons.org/ns#"
   xmlns:rdf="http://www.w3.org/1999/02/22-rdf-syntax-ns#"
   xmlns:svg="http://www.w3.org/2000/svg"
   xmlns="http://www.w3.org/2000/svg"
   xmlns:sodipodi="http://sodipodi.sourceforge.net/DTD/sodipodi-0.dtd"
   xmlns:inkscape="http://www.inkscape.org/namespaces/inkscape"
   viewBox="0 0 16 16"
   id="svg2"
   version="1.1"
   inkscape:version="0.91 r13725"
   sodipodi:docname="indicator-keyboard-Fi-3.svg">
  <metadata
     id="metadata14">
    <rdf:RDF>
      <cc:Work
         rdf:about="">
        <dc:format>image/svg+xml</dc:format>
        <dc:type
           rdf:resource="http://purl.org/dc/dcmitype/StillImage" />
      </cc:Work>
    </rdf:RDF>
  </metadata>
  <defs
     id="defs12" />
  <sodipodi:namedview
     pagecolor="#ffffff"
     bordercolor="#666666"
     borderopacity="1"
     objecttolerance="10"
     gridtolerance="10"
     guidetolerance="10"
     inkscape:pageopacity="0"
     inkscape:pageshadow="2"
     inkscape:window-width="459"
     inkscape:window-height="369"
     id="namedview10"
     showgrid="false"
     inkscape:zoom="14.75"
     inkscape:cx="8"
     inkscape:cy="8"
     inkscape:window-x="65"
     inkscape:window-y="24"
     inkscape:window-maximized="0"
     inkscape:current-layer="svg2" />
  <path
     style="fill:#353535;fill-opacity:1"
     d="M 1.5996094 0 C 0.71320937 2.9605947e-16 0 0.71320937 0 1.5996094 L 0 14.400391 C 2.9605947e-16 15.286791 0.71320937 16 1.5996094 16 L 14.400391 16 C 15.286791 16 16 15.286791 16 14.400391 L 16 1.5996094 C 16 0.71320937 15.286791 0 14.400391 0 L 1.5996094 0 z M 8.5214844 4.5898438 C 8.6414844 4.5898438 8.744125 4.6308438 8.828125 4.7148438 C 8.912125 4.7928438 8.953125 4.9010625 8.953125 5.0390625 C 8.953125 5.1770625 8.912125 5.2870937 8.828125 5.3710938 C 8.744125 5.4490937 8.6414844 5.4882813 8.5214844 5.4882812 C 8.4014844 5.4882812 8.2988437 5.4490937 8.2148438 5.3710938 C 8.1308438 5.2870937 8.0898437 5.1770625 8.0898438 5.0390625 C 8.0898438 4.9010625 8.1308438 4.7928438 8.2148438 4.7148438 C 8.2988437 4.6308438 8.4014844 4.5898437 8.5214844 4.5898438 z M 3.59375 4.859375 L 7.1484375 4.859375 L 7.1484375 5.390625 L 4.2050781 5.390625 L 4.2050781 7.5859375 L 6.8164062 7.5859375 L 6.8164062 8.1171875 L 4.2050781 8.1171875 L 4.2050781 11.095703 L 3.59375 11.095703 L 3.59375 4.859375 z M 8.234375 6.4433594 L 8.8183594 6.4433594 L 8.8183594 11.095703 L 8.234375 11.095703 L 8.234375 6.4433594 z M 11.037109 8.7539062 C 11.239909 8.7539062 11.414294 8.7793781 11.558594 8.8300781 C 11.706794 8.8807781 11.828281 8.953275 11.925781 9.046875 C 12.023281 9.136575 12.095778 9.2463 12.142578 9.375 C 12.189378 9.4997999 12.212891 9.6350031 12.212891 9.7832031 C 12.212891 10.021103 12.148231 10.217041 12.019531 10.369141 C 11.894731 10.517341 11.734056 10.625106 11.535156 10.691406 C 11.644356 10.718706 11.748209 10.759859 11.849609 10.818359 C 11.954909 10.872959 12.048959 10.945456 12.130859 11.035156 C 12.212759 11.120956 12.279378 11.226762 12.330078 11.351562 C 12.380778 11.476363 12.40625 11.623316 12.40625 11.791016 C 12.40625 11.962616 12.3749 12.119372 12.3125 12.263672 C 12.254 12.407972 12.163869 12.535331 12.042969 12.644531 C 11.925969 12.749831 11.77705 12.834084 11.59375 12.896484 C 11.41045 12.954984 11.194919 12.984375 10.949219 12.984375 C 10.820519 12.984375 10.700997 12.974578 10.591797 12.955078 C 10.486497 12.939478 10.3944 12.919884 10.3125 12.896484 C 10.2306 12.873084 10.160062 12.849572 10.101562 12.826172 C 10.046962 12.802772 10.005815 12.783178 9.9785156 12.767578 L 10.078125 12.427734 C 10.101525 12.443334 10.140713 12.462928 10.195312 12.486328 C 10.249913 12.509728 10.314572 12.533241 10.388672 12.556641 C 10.466672 12.576141 10.550931 12.593775 10.644531 12.609375 C 10.742031 12.624975 10.847838 12.632813 10.960938 12.632812 C 11.331437 12.632812 11.597912 12.556397 11.757812 12.404297 C 11.917712 12.248297 11.996094 12.040597 11.996094 11.779297 C 11.996094 11.607697 11.962784 11.464662 11.896484 11.351562 C 11.834084 11.238462 11.747866 11.148331 11.634766 11.082031 C 11.525566 11.011831 11.396247 10.962847 11.248047 10.935547 C 11.103747 10.904347 10.948956 10.888672 10.785156 10.888672 L 10.726562 10.888672 L 10.726562 10.574219 L 10.861328 10.574219 C 10.966628 10.574219 11.074394 10.564422 11.183594 10.544922 C 11.296694 10.521522 11.398581 10.480375 11.488281 10.421875 C 11.581881 10.363375 11.658297 10.285 11.716797 10.1875 C 11.779197 10.09 11.808594 9.9646001 11.808594 9.8125 C 11.808594 9.6838 11.788994 9.5760281 11.746094 9.4863281 C 11.703194 9.3927281 11.644413 9.3182719 11.570312 9.2636719 C 11.500113 9.2090719 11.415859 9.1698844 11.318359 9.1464844 C 11.224759 9.1191844 11.124831 9.1054687 11.019531 9.1054688 C 10.808931 9.1054688 10.646297 9.1348594 10.529297 9.1933594 C 10.412297 9.2518594 10.316288 9.3067219 10.242188 9.3574219 L 10.078125 9.0585938 C 10.117125 9.0312937 10.166109 8.9999437 10.224609 8.9648438 C 10.287009 8.9297437 10.359506 8.8964344 10.441406 8.8652344 C 10.523306 8.8340344 10.611484 8.8085625 10.708984 8.7890625 C 10.810384 8.7656625 10.920109 8.7539062 11.037109 8.7539062 z "
     id="path4" />
</svg>

<svg xmlns="http://www.w3.org/2000/svg" viewBox="0 0 16 16">
 <path d="m 1.6 0 c -0.886 0 -1.6 0.713 -1.6 1.6 l 0 12.801 c 0 0.886 0.713 1.6 1.6 1.6 l 12.801 0 c 0.886 0 1.6 -0.713 1.6 -1.6 l 0 -12.801 c 0 -0.886 -0.713 -1.6 -1.6 -1.6 l -12.801 0 z m 6.922 4.59 c 0.12 0 0.223 0.041 0.307 0.125 c 0.084 0.078 0.125 0.186 0.125 0.324 c 0 0.138 -0.041 0.248 -0.125 0.332 c -0.084 0.078 -0.187 0.117 -0.307 0.117 c -0.12 0 -0.223 -0.039 -0.307 -0.117 c -0.084 -0.084 -0.125 -0.194 -0.125 -0.332 c 0 -0.138 0.041 -0.246 0.125 -0.324 c 0.084 -0.084 0.187 -0.125 0.307 -0.125 z m -4.928 0.27 l 3.555 0 l 0 0.531 l -2.943 0 l 0 2.195 l 2.611 0 l 0 0.531 l -2.611 0 l 0 2.979 l -0.611 0 l 0 -6.236 z m 4.641 1.584 l 0.584 0 l 0 4.652 l -0.584 0 l 0 -4.652 z m 2.803 2.311 c 0.203 0 0.377 0.025 0.521 0.076 c 0.148 0.051 0.27 0.123 0.367 0.217 c 0.098 0.09 0.17 0.199 0.217 0.328 c 0.047 0.125 0.07 0.26 0.07 0.408 c 0 0.238 -0.065 0.434 -0.193 0.586 c -0.125 0.148 -0.285 0.256 -0.484 0.322 c 0.109 0.027 0.213 0.068 0.314 0.127 c 0.105 0.055 0.199 0.127 0.281 0.217 c 0.082 0.086 0.149 0.192 0.199 0.316 c 0.051 0.125 0.076 0.272 0.076 0.439 c 0 0.172 -0.031 0.328 -0.094 0.473 c -0.059 0.144 -0.149 0.272 -0.27 0.381 c -0.117 0.105 -0.266 0.19 -0.449 0.252 c -0.183 0.059 -0.399 0.088 -0.645 0.088 c -0.129 0 -0.248 -0.01 -0.357 -0.029 c -0.105 -0.016 -0.197 -0.035 -0.279 -0.059 c -0.082 -0.023 -0.152 -0.047 -0.211 -0.07 c -0.055 -0.023 -0.096 -0.043 -0.123 -0.059 l 0.1 -0.34 c 0.023 0.016 0.063 0.035 0.117 0.059 c 0.055 0.023 0.119 0.047 0.193 0.07 c 0.078 0.019 0.162 0.037 0.256 0.053 c 0.098 0.016 0.203 0.023 0.316 0.023 c 0.37 0 0.637 -0.076 0.797 -0.229 c 0.16 -0.156 0.238 -0.364 0.238 -0.625 c 0 -0.172 -0.033 -0.315 -0.1 -0.428 c -0.062 -0.113 -0.149 -0.203 -0.262 -0.27 c -0.109 -0.07 -0.239 -0.119 -0.387 -0.146 c -0.144 -0.031 -0.299 -0.047 -0.463 -0.047 l -0.059 0 l 0 -0.314 l 0.135 0 c 0.105 0 0.213 -0.01 0.322 -0.029 c 0.113 -0.023 0.215 -0.065 0.305 -0.123 c 0.094 -0.059 0.17 -0.137 0.229 -0.234 c 0.062 -0.098 0.092 -0.223 0.092 -0.375 c 0 -0.129 -0.02 -0.236 -0.063 -0.326 c -0.043 -0.094 -0.102 -0.168 -0.176 -0.223 c -0.07 -0.055 -0.154 -0.094 -0.252 -0.117 c -0.094 -0.027 -0.194 -0.041 -0.299 -0.041 c -0.211 0 -0.373 0.029 -0.49 0.088 c -0.117 0.059 -0.213 0.113 -0.287 0.164 l -0.164 -0.299 c 0.039 -0.027 0.088 -0.059 0.146 -0.094 c 0.062 -0.035 0.135 -0.068 0.217 -0.1 c 0.082 -0.031 0.17 -0.057 0.268 -0.076 c 0.101 -0.023 0.211 -0.035 0.328 -0.035 z" style="fill:#353535;fill-opacity:1"/>
</svg>
